X: 01048
T: GREEN MOUNTAIN MARCH
C: Bob McQuillen Oct.'75
B: Bob's Note Book 1 #48
R: march
Z: 2019 John Chambers <jc:trillian.mit.edu>
M: C
L: 1/4
K: D
DE \
| F>E FG | FE DE | FA A>B | A2 de | f>e fd | ed Bd | Ad AF | E2 DE |
| F>E FG | FE DE | FA A>B | A2 de | f>e fd | ed Bd | Ad d>e | d2 ||
|| de \
| f>e fg | af de | fd Bd | AA de | f>e fg | af da | ba gf | e2 de |
| f>e fg | af dA | Bd d>B | A2 de | fa a>b | af dA | Bd d>e | d2 |]
%%begintext align
%%endtext

%%sep 1 1 500

%%sep 1 1 500

